icons/mobile/24/svg/microphone-slash-24.svg

<svg width="24" height="24" viewBox="0 0 24 24" fill="none" xmlns="http://www.w3.org/2000/svg">
<path d="M2.25579 2.25586C2.5975 1.91415 3.15237 1.91415 3.49407 2.25586L21.7441 20.5059C22.0858 20.8476 22.0858 21.4024 21.7441 21.7441C21.4024 22.0858 20.8475 22.0858 20.5058 21.7441L15.4775 16.7158C14.6878 17.1603 13.8096 17.458 12.8749 17.5732V20.25H16.1249C16.6082 20.25 16.9999 20.6418 16.9999 21.125C16.9999 21.6082 16.6082 22 16.1249 22H7.87493C7.39168 22 6.99993 21.6082 6.99993 21.125C6.99993 20.6418 7.39168 20.25 7.87493 20.25H11.1249V17.5752C8.1505 17.2173 5.70464 15.0551 5.02239 12.0723C4.91443 11.6004 5.20887 11.1316 5.67962 11.0244C6.14455 10.9114 6.62035 11.2088 6.72845 11.6807C7.29245 14.1517 9.45995 15.8779 11.9999 15.8779C12.7747 15.8779 13.5099 15.7118 14.1767 15.415L12.6962 13.9346C12.4709 13.9761 12.2389 14 12.0009 14C9.87095 14 8.13387 12.334 8.04583 10.2061C8.03265 9.89317 8.02317 9.57575 8.01556 9.25391L2.25579 3.49414C1.91408 3.15243 1.91408 2.59757 2.25579 2.25586Z" fill="black"/>
<path d="M17.2724 11.6807C17.3806 11.2099 17.8504 10.9124 18.3202 11.0244C18.791 11.1326 19.0844 11.6004 18.9775 12.0723C18.7695 12.9801 18.3856 13.8014 17.8857 14.5303L16.6249 13.2686C16.9148 12.7856 17.1414 12.2565 17.2724 11.6807Z" fill="black"/>
<path d="M11.999 1.99902C14.1289 1.99904 15.866 3.665 15.954 5.79297C15.984 6.50497 15.9999 7.24002 15.9999 7.99902C15.9999 8.6989 15.986 9.42578 15.955 10.1816C15.927 10.8636 15.7165 11.4891 15.3945 12.0381L14.0849 10.7275C14.1498 10.5328 14.1979 10.329 14.207 10.1123C14.236 9.3803 14.2499 8.676 14.2499 8C14.2499 7.26608 14.234 6.55414 14.206 5.86621C14.157 4.68022 13.1869 3.75002 11.999 3.75C10.8111 3.75 9.84207 4.68985 9.7929 5.8877C9.78491 6.07461 9.78715 6.24288 9.78216 6.42578L8.2138 4.85742C8.6968 3.19842 10.201 1.99902 11.999 1.99902Z" fill="black"/>
</svg>

<!-- This Source Code Form is subject to the terms of the Mozilla Public
   - License, v. 2.0. If a copy of the MPL was not distributed with this
   - file, You can obtain one at http://mozilla.org/MPL/2.0/. -->
<svg xmlns="http://www.w3.org/2000/svg" width="24" height="24" fill="none" viewBox="0 0 24 24">
    <path fill="#000" d="M2.256 2.256a.876.876 0 0 1 1.238 0l18.25 18.25a.876.876 0 0 1-1.238 1.238l-5.029-5.028a7.1 7.1 0 0 1-2.602.857v2.677h3.25a.875.875 0 1 1 0 1.75h-8.25a.875.875 0 0 1 0-1.75h3.25v-2.675a7.11 7.11 0 0 1-6.103-5.503.874.874 0 0 1 .658-1.048.873.873 0 0 1 1.048.657A5.38 5.38 0 0 0 12 15.878c.775 0 1.51-.166 2.177-.463l-1.48-1.48a3.948 3.948 0 0 1-4.65-3.729 52 52 0 0 1-.031-.952l-5.76-5.76a.876.876 0 0 1 0-1.238m15.016 9.424a.875.875 0 0 1 1.705.392 7.2 7.2 0 0 1-1.091 2.458l-1.261-1.261c.29-.483.516-1.012.647-1.588m-5.273-9.682a3.95 3.95 0 0 1 3.955 3.794 52 52 0 0 1 .001 4.389 4 4 0 0 1-.56 1.856l-1.31-1.31a2.2 2.2 0 0 0 .122-.616 53 53 0 0 0-.001-4.246 2.204 2.204 0 0 0-2.207-2.116c-1.188 0-2.157.94-2.206 2.138-.008.187-.006.355-.01.538l-1.57-1.569C8.698 3.198 10.202 2 12 2" />
</svg>
